src/standard/password-a.svg

<svg xmlns="http://www.w3.org/2000/svg" viewBox="0 0 36 36">
  <path d="M31 18.38H5a.62.62 0 0 0-.62.62v8a.62.62 0 0 0 .62.62h26a.62.62 0 0 0 .62-.62v-8a.62.62 0 0 0-.62-.62Zm-.62 8H5.62v-6.76h24.76ZM14 13.62a2.62 2.62 0 0 0 2.54-2h2.84V13a.62.62 0 1 0 1.24 0v-1.38h.76V13a.62.62 0 1 0 1.24 0v-1.38h.76V12a.62.62 0 0 0 1.24 0c0-.54.23-1.6-.62-1.62h-7.46A2.62 2.62 0 1 0 14 13.62Zm0-4a1.38 1.38 0 0 1 0 2.75 1.38 1.38 0 0 1 0-2.75Z"/>
  <path d="M8.56 23.44c.57.59 1.45-.31.88-.88s-1.44.31-.88.88Zm3 0a.62.62 0 0 0 .88-.88c-.57-.56-1.44.31-.88.88Zm3 0a.62.62 0 0 0 .88-.88.62.62 0 0 0-.88.88Zm3 0c.57.59 1.45-.31.88-.88a.62.62 0 0 0-.88.88Zm3 0c.57.59 1.45-.31.88-.88s-1.44.31-.88.88Zm3 0a.62.62 0 0 0 .88-.88c-.57-.56-1.44.31-.88.88Zm3 0a.62.62 0 0 0 .88-.88.62.62 0 0 0-.88.88Z"/>
</svg>

<svg xmlns="http://www.w3.org/2000/svg" viewBox="0 0 36 36">
  <title>Password icon - Black</title>
<desc>access, website, account, login, log in, log out, identify, ID, user, permission, secure, private, software and technologies</desc>
<metadata><?xpacket begin="﻿" id="W5M0MpCehiHzreSzNTczkc9d"?>
<x:xmpmeta xmlns:x="adobe:ns:meta/" x:xmptk="Adobe XMP Core 8.0-c001 1.000000, 0000/00/00-00:00:00        ">
   <rdf:RDF xmlns:rdf="http://www.w3.org/1999/02/22-rdf-syntax-ns#">
      <rdf:Description rdf:about=""
            xmlns:xmp="http://ns.adobe.com/xap/1.0/"
            xmlns:dc="http://purl.org/dc/elements/1.1/"
            xmlns:cq="http://www.day.com/jcr/cq/1.0"
            xmlns:tiff="http://ns.adobe.com/tiff/1.0/">
         <xmp:rhcc-effective-on>2023-12-08T17:43:59.646Z</xmp:rhcc-effective-on>
         <xmp:rhcc-metadata-complete-moderator>pending</xmp:rhcc-metadata-complete-moderator>
         <xmp:rhcc-translation-id>TRA9f00c197-c202-4ed5-b030-c6077abd9179</xmp:rhcc-translation-id>
         <xmp:brand-content-type>Icon</xmp:brand-content-type>
         <xmp:CreateDate>2023-12-08T17:43:59.646Z</xmp:CreateDate>
         <xmp:rhcc-effective-on-set-on-upload>true</xmp:rhcc-effective-on-set-on-upload>
         <xmp:rhcc-metadata-complete-uploader>pending</xmp:rhcc-metadata-complete-uploader>
         <xmp:rhcc-file-last-modified>2023-12-08T17:44:11.301Z</xmp:rhcc-file-last-modified>
         <xmp:rhcc-audience>rhcc-audience:internal</xmp:rhcc-audience>
         <xmp:rhcc-rights-restricted>no</xmp:rhcc-rights-restricted>
         <xmp:brand-content-subtype>Icon</xmp:brand-content-subtype>
         <xmp:rhcc-derivative-id>DER9f00c197-c202-4ed5-b030-c6077abd9179</xmp:rhcc-derivative-id>
         <xmp:brand-logo-color>Black</xmp:brand-logo-color>
         <xmp:rhcc-notify-portal-subscribers-on-change>yes</xmp:rhcc-notify-portal-subscribers-on-change>
         <dc:format>image/svg+xml</dc:format>
         <dc:modified>2024-02-09T20:17:53.197Z</dc:modified>
         <dc:title>
            <rdf:Alt>
               <rdf:li xml:lang="x-default">Password icon - Black</rdf:li>
            </rdf:Alt>
         </dc:title>
         <dc:description>
            <rdf:Alt>
               <rdf:li xml:lang="x-default">access, website, account, login, log in, log out, identify, ID, user, permission, secure, private, software and technologies</rdf:li>
            </rdf:Alt>
         </dc:description>
         <cq:lastReplicationAction_scene7>Activate</cq:lastReplicationAction_scene7>
         <cq:lastReplicationAction_publish>Activate</cq:lastReplicationAction_publish>
         <cq:lastReplicated_publish>2024-02-09T21:55:13.250Z</cq:lastReplicated_publish>
         <cq:lastReplicatedBy>workflow-process-service</cq:lastReplicatedBy>
         <cq:lastReplicationAction>Activate</cq:lastReplicationAction>
         <cq:lastReplicatedBy_publish>workflow-process-service</cq:lastReplicatedBy_publish>
         <cq:isDelivered>true</cq:isDelivered>
         <cq:lastReplicated>2024-02-09T21:55:13.250Z</cq:lastReplicated>
         <cq:lastReplicatedBy_scene7>workflow-process-service</cq:lastReplicatedBy_scene7>
         <cq:lastReplicated_scene7>2024-02-09T21:55:13.250Z</cq:lastReplicated_scene7>
         <tiff:ImageLength>36</tiff:ImageLength>
         <tiff:ImageWidth>36</tiff:ImageWidth>
      </rdf:Description>
   </rdf:RDF>
</x:xmpmeta>
                                                                                                    
                                                                                                    
                                                                                                    
                                                                                                    
                                                                                                    
                                                                                                    
                                                                                                    
                                                                                                    
                                                                                                    
                                                                                                    
                                 
<?xpacket end="w"?></metadata>
<g id="ab4fe1ee-4e74-457f-bf21-0702cfe3e2e0" data-name="Guidelines">
    <g>
      <path d="M31,18.38H5a.62.62,0,0,0-.62.62v8a.62.62,0,0,0,.62.62H31a.62.62,0,0,0,.62-.62V19A.62.62,0,0,0,31,18.38Zm-.62,8H5.62V19.62H30.38Z"/>
      <path d="M14,13.62a2.62,2.62,0,0,0,2.54-2h2.84V13a.62.62,0,1,0,1.24,0V11.62h.76V13a.62.62,0,1,0,1.24,0V11.62h.76V12a.62.62,0,0,0,1.24,0c0-.54.23-1.6-.62-1.62H16.54A2.62,2.62,0,1,0,14,13.62Zm0-4a1.38,1.38,0,0,1,0,2.75A1.38,1.38,0,0,1,14,9.62Z"/>
      <path d="M8.56,23.44c.57.59,1.45-.31.88-.88S8,22.87,8.56,23.44Z"/>
      <path d="M11.56,23.44a.62.62,0,0,0,.88-.88C11.87,22,11,22.87,11.56,23.44Z"/>
      <path d="M14.56,23.44a.62.62,0,0,0,.88-.88A.62.62,0,0,0,14.56,23.44Z"/>
      <path d="M17.56,23.44c.57.59,1.45-.31.88-.88A.62.62,0,0,0,17.56,23.44Z"/>
      <path d="M20.56,23.44c.57.59,1.45-.31.88-.88S20,22.87,20.56,23.44Z"/>
      <path d="M23.56,23.44a.62.62,0,0,0,.88-.88C23.87,22,23,22.87,23.56,23.44Z"/>
      <path d="M26.56,23.44a.62.62,0,0,0,.88-.88A.62.62,0,0,0,26.56,23.44Z"/>
    </g>
  </g>
</svg>
